src/24/actions/snap-intersection.svg

<svg xmlns="http://www.w3.org/2000/svg" viewBox="0 0 24 24"><path d="M4 4v1h1V4H4zm15.293 0l-6 6H10v3.293l-6 6 .707.707 6-6H14v-3.293l6-6L19.293 4zM6 6v1h1V6H6zm2 2v1h1V8H8zm7 7v1h1v-1h-1zm2 2v1h1v-1h-1zm2 2v1h1v-1h-1z" fill="currentColor" color="#5d656b"/></svg>

<svg xmlns="http://www.w3.org/2000/svg" viewBox="0 0 24 24">
  <defs id="defs3051">
    <style type="text/css" id="current-color-scheme">
      .ColorScheme-Text {
        color:#5d656b;
      }
      </style>
  </defs>
 <path style="fill:currentColor;fill-opacity:1;stroke:none" 
     d="M 4 4 L 4 5 L 5 5 L 5 4 L 4 4 z M 19.292969 4 L 13.292969 10 L 10 10 L 10 13.292969 L 4 19.292969 L 4.7070312 20 L 10.707031 14 L 14 14 L 14 10.707031 L 20 4.7070312 L 19.292969 4 z M 6 6 L 6 7 L 7 7 L 7 6 L 6 6 z M 8 8 L 8 9 L 9 9 L 9 8 L 8 8 z M 15 15 L 15 16 L 16 16 L 16 15 L 15 15 z M 17 17 L 17 18 L 18 18 L 18 17 L 17 17 z M 19 19 L 19 20 L 20 20 L 20 19 L 19 19 z "
     class="ColorScheme-Text"
     />
</svg>
